swiss/communes/5891.svg

<?xml version="1.0" encoding="UTF-8" standalone="no"?>
<svg
   xmlns:dc="http://purl.org/dc/elements/1.1/"
   xmlns:cc="http://creativecommons.org/ns#"
   xmlns:rdf="http://www.w3.org/1999/02/22-rdf-syntax-ns#"
   xmlns:svg="http://www.w3.org/2000/svg"
   xmlns="http://www.w3.org/2000/svg"
   xmlns:xlink="http://www.w3.org/1999/xlink"
   xmlns:sodipodi="http://sodipodi.sourceforge.net/DTD/sodipodi-0.dtd"
   xmlns:inkscape="http://www.inkscape.org/namespaces/inkscape"
   height="763"
   width="603"
   version="1.0"
   id="svg20"
   sodipodi:version="0.32"
   inkscape:version="0.46"
   sodipodi:docname="Veytaux-coat_of_arms.svg"
   sodipodi:docbase="C:\Documents and Settings\Steve\Bureau\Blason Villages Suisse pour Wikipédia (par Delta-9)"
   inkscape:output_extension="org.inkscape.output.svg.inkscape">
  <metadata
     id="metadata31">
    <rdf:RDF>
      <cc:Work
         rdf:about="">
        <dc:format>image/svg+xml</dc:format>
        <dc:type
           rdf:resource="http://purl.org/dc/dcmitype/StillImage" />
        <dc:date>07-AUG-2006</dc:date>
        <dc:creator>
          <cc:Agent>
            <dc:title>Jérôme BLUM (wagner51)</dc:title>
          </cc:Agent>
        </dc:creator>
        <cc:license
           rdf:resource="http://creativecommons.org/licenses/GPL/2.0/" />
        <dc:coverage />
        <dc:description>Gabarit pour le Projet:Blasons de WIkipédia</dc:description>
        <dc:subject>
          <rdf:Bag>
            <rdf:li>blason suisse modèle gabarit projet blasons</rdf:li>
          </rdf:Bag>
        </dc:subject>
        <dc:language>fr</dc:language>
        <dc:title>Gabrit d'un blason suisse</dc:title>
      </cc:Work>
      <cc:License
         rdf:about="http://creativecommons.org/licenses/GPL/2.0/">
        <cc:permits
           rdf:resource="http://web.resource.org/cc/Reproduction" />
        <cc:permits
           rdf:resource="http://web.resource.org/cc/Distribution" />
        <cc:requires
           rdf:resource="http://web.resource.org/cc/Notice" />
        <cc:permits
           rdf:resource="http://web.resource.org/cc/DerivativeWorks" />
        <cc:requires
           rdf:resource="http://web.resource.org/cc/ShareAlike" />
        <cc:requires
           rdf:resource="http://web.resource.org/cc/SourceCode" />
      </cc:License>
    </rdf:RDF>
  </metadata>
  <defs
     id="defs29"><inkscape:perspective
   sodipodi:type="inkscape:persp3d"
   inkscape:vp_x="0 : 381.5 : 1"
   inkscape:vp_y="0 : 1000 : 0"
   inkscape:vp_z="603 : 381.5 : 1"
   inkscape:persp3d-origin="301.5 : 254.33333 : 1"
   id="perspective28" />
<linearGradient
   id="linearGradient2893">
  <stop
     style="stop-color:#ffffff;stop-opacity:0.3137255;"
     offset="0"
     id="stop2895" />
  <stop
     id="stop2897"
     offset="0.19"
     style="stop-color:#ffffff;stop-opacity:0.25098041;" />
  <stop
     style="stop-color:#6b6b6b;stop-opacity:0.1254902;"
     offset="0.60000002"
     id="stop2901" />
  <stop
     style="stop-color:#000000;stop-opacity:0.1254902;"
     offset="1"
     id="stop2899" />
</linearGradient>
<linearGradient
   id="linearGradient2955">
  <stop
     style="stop-color:white;stop-opacity:0;"
     offset="0"
     id="stop2965" />
  <stop
     style="stop-color:black;stop-opacity:0.64583331;"
     offset="1"
     id="stop2959" />
</linearGradient>
<radialGradient
   inkscape:collect="always"
   xlink:href="#linearGradient2893"
   id="radialGradient3236"
   gradientUnits="userSpaceOnUse"
   gradientTransform="matrix(1.215027,1.531577e-24,1.464684e-23,1.266667,-839.1924,-490.4894)"
   cx="858.04236"
   cy="579.93323"
   fx="858.04236"
   fy="579.93323"
   r="300" />
<inkscape:perspective
   id="perspective2543"
   inkscape:persp3d-origin="297.63751 : 280.63 : 1"
   inkscape:vp_z="595.27502 : 420.94501 : 1"
   inkscape:vp_y="0 : 1000 : 0"
   inkscape:vp_x="0 : 420.94501 : 1"
   sodipodi:type="inkscape:persp3d" />

	
	
	
	

	
	

		
		
	
		
		
		
	
		
		
	</defs>
  <sodipodi:namedview
     inkscape:window-height="805"
     inkscape:window-width="1166"
     inkscape:pageshadow="2"
     inkscape:pageopacity="0.0"
     guidetolerance="10.0"
     gridtolerance="10.0"
     objecttolerance="10.0"
     borderopacity="1.0"
     bordercolor="#666666"
     pagecolor="#ffffff"
     id="base"
     inkscape:zoom="0.76365584"
     inkscape:cx="300.8808"
     inkscape:cy="376.39112"
     inkscape:window-x="9"
     inkscape:window-y="83"
     inkscape:current-layer="layer1"
     showgrid="false"
     showguides="true"
     inkscape:guide-bbox="true">
    <sodipodi:guide
       orientation="horizontal"
       position="761.5"
       id="guide1885" />
    <sodipodi:guide
       orientation="vertical"
       position="1.5"
       id="guide1887" />
    <sodipodi:guide
       orientation="horizontal"
       position="1.5"
       id="guide1889" />
    <sodipodi:guide
       orientation="vertical"
       position="601.5"
       id="guide1891" />
    <sodipodi:guide
       orientation="vertical"
       position="301.50081"
       id="guide1893" />
  </sodipodi:namedview>
  <desc
     id="desc22">Coat of Arms of Canton of Freiburg (Fribourg)</desc>
  <g
     inkscape:groupmode="layer"
     id="layer1"
     inkscape:label="Fond écu"
     style="opacity:1;display:inline"
     sodipodi:insensitive="true">
    <path
       d="M 1.5,1.5 L 1.5,460.369 C 1.5,626.68 135.814,761.5 301.5,761.5 C 467.186,761.5 601.5,626.68 601.5,460.369 L 601.5,1.5 L 1.5,1.5 z"
       id="path2550"
       style="opacity:1;fill:#ffffff;display:inline" />
    <path
       id="path2512"
       d="M 40.823,609.499 C 92.489002,700.295 189.87,761.499 301.499,761.499 C 413.129,761.499 510.51,700.295 562.176,609.499 L 40.823,609.499 z"
       style="opacity:1;fill:#2b5df2;display:inline" />
  </g>
  <g
     inkscape:groupmode="layer"
     id="layer2"
     inkscape:label="Meubles"
     style="opacity:1;display:inline"
     sodipodi:insensitive="true">
    <path
       style="fill:#2b5df2"
       d="M 492.782,303.9 C 492.782,247.983 517.766,247.983 517.766,192.067 C 517.766,136.15 492.782,136.15 492.782,80.233001 C 492.782,38.242999 506.871,27.784 513.888,1.5 L 438.377,1.5 C 431.358,27.784 417.27,38.242999 417.27,80.233001 C 417.27,136.15 442.255,136.15 442.255,192.067 C 442.255,247.983 417.27,247.983 417.27,303.9 C 417.27,359.817 442.255,359.817 442.255,415.733 C 442.255,471.65 417.27,471.65 417.27,527.566 C 417.27,571.22 432.498,580.795 439.177,609.5 L 514.688,609.5 C 508.008,580.796 492.782,571.221 492.782,527.566 C 492.782,471.65 517.766,471.65 517.766,415.733 C 517.767,359.817 492.782,359.817 492.782,303.9 z M 164.62,1.5 L 89.108999,1.5 C 96.127001,27.784 110.215,38.242999 110.215,80.233001 C 110.215,136.15 85.230999,136.15 85.230999,192.067 C 85.230999,247.983 110.215,247.983 110.215,303.9 C 110.215,359.817 85.232,359.817 85.232,415.733 C 85.232,471.65 110.216,471.65 110.216,527.566 C 110.216,571.22 94.989002,580.795 88.309999,609.5 L 163.821,609.5 C 170.5,580.796 185.728,571.221 185.728,527.566 C 185.728,471.65 160.743,471.65 160.743,415.733 C 160.743,359.817 185.728,359.817 185.728,303.9 C 185.728,247.983 160.743,247.983 160.743,192.067 C 160.743,136.15 185.728,136.15 185.728,80.233001 C 185.728,38.242999 171.638,27.784 164.62,1.5 z"
       id="path2518" />
    <path
       style="fill:none;stroke:#000000;stroke-width:3"
       d="M 514.689,609.499 C 508.009,580.795 492.783,571.22 492.783,527.565 C 492.783,471.649 517.767,471.649 517.767,415.732 C 517.767,359.816 492.783,359.816 492.783,303.899 C 492.783,247.982 517.767,247.982 517.767,192.066 C 517.767,136.149 492.783,136.149 492.783,80.232 C 492.783,38.242 506.872,27.782999 513.889,1.499 M 438.378,1.5 C 431.359,27.784 417.271,38.242999 417.271,80.233001 C 417.271,136.15 442.256,136.15 442.256,192.067 C 442.256,247.983 417.271,247.983 417.271,303.9 C 417.271,359.817 442.256,359.817 442.256,415.733 C 442.256,471.65 417.271,471.65 417.271,527.566 C 417.271,571.22 432.499,580.795 439.178,609.5 M 163.821,609.499 C 170.5,580.795 185.728,571.22 185.728,527.565 C 185.728,471.649 160.743,471.649 160.743,415.732 C 160.743,359.816 185.728,359.816 185.728,303.899 C 185.728,247.982 160.743,247.982 160.743,192.066 C 160.743,136.149 185.728,136.149 185.728,80.232 C 185.728,38.242 171.639,27.782999 164.621,1.499 M 89.108999,1.5 C 96.127001,27.784 110.215,38.242999 110.215,80.233001 C 110.215,136.15 85.230999,136.15 85.230999,192.067 C 85.230999,247.983 110.215,247.983 110.215,303.9 C 110.215,359.817 85.232,359.817 85.232,415.733 C 85.232,471.65 110.216,471.65 110.216,527.566 C 110.216,571.22 94.989002,580.795 88.309999,609.5"
       id="path2520" />
    <line
       id="line2522"
       y2="609.49896"
       x2="562.17596"
       y1="609.49896"
       x1="40.823002"
       style="fill:none;stroke:#000000;stroke-width:3" />
    <rect
       style="stroke:#000000;stroke-width:3"
       x="236.42499"
       y="369.05902"
       width="130.14799"
       height="234.49001"
       id="rect2526" />
    <polygon
       style="stroke:#000000;stroke-width:3"
       points="356.125,294.887 356.125,335.345 326.609,335.345 326.609,294.887 276.465,294.887 276.465,335.345 246.949,335.345 246.949,294.887 215.039,294.887 215.039,363.152 388.035,363.152 388.035,294.887 356.125,294.887 "
       id="polygon2528"
       transform="translate(-3.8e-2,-4.5e-2)" />
    <rect
       style="fill:#ffffff;stroke:#000000;stroke-width:3"
       x="284.785"
       y="385.58301"
       width="33.429001"
       height="44.066002"
       id="rect2530" />
    <path
       style="stroke:#000000;stroke-width:2;stroke-linecap:round;stroke-linejoin:round"
       d="M 381.552,226.824 C 381.232,223.388 376.686,220.054 376.686,213.555 C 376.686,207.055 375.371,190.537 373.003,184.309 C 370.635,178.08 370.898,174.019 370.898,174.019 C 375.371,175.373 382.21,179.164 382.21,179.164 C 366.689,154.522 345.908,158.314 340.384,159.938 C 334.86,161.562 317.009,163.916 310.132,160.75 C 298.952,155.605 289.942,154.184 282.839,151.205 C 282.839,151.205 280.724,140.294 282.839,131.099 C 283.431,128.526 293.427,117.559 292.244,105.779 C 292.244,105.779 299.675,103.817 303.687,99.687002 C 307.699,95.558003 310.132,94.542002 310.132,94.542002 C 310.132,94.542002 303.819,92.646 298.294,94.271002 C 292.77,95.896002 291.981,97.746003 289.788,97.746003 C 289.788,97.746003 288.114,95.081002 283.417,93.430003 C 282.235,82.239001 282.194,72.652999 285.636,67.944001 C 289.226,63.031999 294.443,66.691999 295.225,66.063999 C 296.006,65.435999 293.563,62.215999 289.821,61.742999 C 282.51,60.819 279.155,68.944001 278.344,75.753 C 277.775,80.519999 278.418,88.200001 278.854,92.379999 C 277.723,92.236001 276.492,92.150999 275.145,92.150999 C 274.8,92.150999 274.486,92.176999 274.157,92.191001 C 271.574,81 270.309,71.257001 273.217,66.065 C 276.198,60.738999 281.811,63.717999 282.511,62.997 C 283.212,62.274999 280.407,59.385999 276.637,59.385999 C 269.271,59.385999 266.904,67.870999 266.904,74.732 C 266.904,80.275999 268.966,89.474001 269.756,92.798001 C 262.975,94.553002 260.505,99.327002 256.294,99.914002 C 251.121,100.636 241.475,100.185 239.633,104.157 C 237.791,108.129 237.178,112.823 239.195,113.274 C 241.212,113.725 248.446,113.499 250.769,115.891 C 253.093,118.284 257.872,123.924 264.624,125.279 C 264.624,125.279 257.916,131.778 249.103,147.213 C 240.29,162.648 240.773,179.166 240.773,179.166 C 238.318,180.611 237.44,182.598 235.95,181.965 C 232.17,180.363 223.938,175.015 220.429,175.015 C 216.92,175.015 193.684,202.094 193.684,207.419 C 193.684,209.857 198.769,220.328 198.769,220.328 C 197.629,222.674 198.331,228.722 198.331,228.722 L 202.365,221.771 C 200.436,221.14 201.312,215.272 201.312,215.272 C 198.682,213.376 198.682,206.606 198.682,206.606 C 206.574,194.782 217.097,184.672 220.954,182.505 C 232.529,192.796 235.072,191.983 237.264,191.983 C 239.455,191.983 243.664,191.351 243.664,191.351 C 244.19,193.246 249.189,194.6 249.189,194.6 C 246.383,194.6 244.892,197.67 242.437,199.024 C 239.982,200.378 228.319,199.61 226.215,201.37 C 212.517,212.828 210.431,230.887 209.248,236.032 C 208.064,241.177 210.432,247.676 210.432,247.676 C 209.248,250.926 209.774,257.966 209.774,257.966 L 215.956,249.571 C 213.654,249.368 213.983,245.374 213.983,245.374 C 212.799,244.156 213.983,238.063 213.983,238.063 C 212.668,227.367 224.9,209.629 228.452,207.463 C 232.003,205.296 257.52,208.411 259.625,207.734 C 261.729,207.057 261.466,202.996 261.466,202.996 C 261.466,202.996 270.804,206.109 283.036,206.109 C 304.871,206.109 321.18,193.11 331.439,193.11 C 331.439,193.11 328.94,204.349 325.652,216.399 C 322.364,228.449 327.581,239.461 327.581,242.801 C 327.581,246.14 309.166,263.109 308.422,264.599 C 306.318,268.662 304.695,276.92 304.695,276.92 C 301.099,278.906 298.688,283.961 298.688,283.961 L 307.131,283.961 C 307.131,278.681 309.868,278.139 309.868,278.139 C 308.683,273.401 311.642,270.76 311.642,270.76 C 314.865,262.434 332.228,249.57 335.516,247.54 C 338.148,245.914 334.99,238.873 340.382,230.796 C 344.066,224.477 346.433,212.742 346.433,212.742 C 362.743,233.186 373.483,233.393 374.054,235.895 C 376.553,246.855 379.71,255.257 383.393,262.839 C 380.631,265.682 376.159,272.859 376.159,272.859 C 374.12,274.958 371.95,279.764 371.95,279.764 L 380.368,279.764 C 380.368,271.776 382.209,273.942 382.209,273.942 C 384.84,267.984 389.838,265.682 389.838,265.682 C 384.315,254.851 382.209,233.865 381.552,226.824 z"
       id="path2534" />
    <path
       style="fill:#ffffff"
       d="M 275.111,101.582 C 275.111,100.336 273.275,99.326003 271.724,99.326003 C 270.173,99.326003 268.337,100.336 268.337,101.582 C 268.337,102.829 270.174,103.838 271.724,103.838 C 273.274,103.838 275.111,102.829 275.111,101.582 z"
       id="path2536" />
  </g>
  <g
     inkscape:groupmode="layer"
     id="layer3"
     inkscape:label="Reflet final"
     style="display:inline"
     sodipodi:insensitive="true">
    <path
       style="fill:url(#radialGradient3236);fill-opacity:1"
       d="M 1.5,1.5 L 1.5,460.3679 C 1.5,626.67854 135.81454,761.5 301.49993,761.5 C 467.1854,761.5 601.5,626.67854 601.5,460.3679 L 601.5,1.5 L 1.5,1.5 z "
       id="path2346" />
  </g>
  <g
     inkscape:groupmode="layer"
     id="layer4"
     inkscape:label="Contour final"
     style="display:inline"
     sodipodi:insensitive="true">
    <path
       style="fill:none;fill-opacity:1;stroke:#000000;stroke-width:3;stroke-miterlimit:4;stroke-dasharray:none;stroke-opacity:1"
       d="M 1.5,1.5 L 1.5,460.36794 C 1.5,626.67854 135.81454,761.5 301.49993,761.5 C 467.1854,761.5 601.5,626.67854 601.5,460.36794 L 601.5,1.5 L 1.5,1.5 z "
       id="path3239" />
  </g>
</svg>

<svg xmlns="http://www.w3.org/2000/svg" xmlns:xlink="http://www.w3.org/1999/xlink" height="763" width="603" version="1.0"><defs><radialGradient xlink:href="#a" id="b" gradientUnits="userSpaceOnUse" gradientTransform="matrix(1.21503 0 0 1.26667 -839.192 -490.49)" cx="858.042" cy="579.933" fx="858.042" fy="579.933" r="300"/><linearGradient id="a"><stop style="stop-color:#fff;stop-opacity:.3137255" offset="0"/><stop offset=".19" style="stop-color:#fff;stop-opacity:.25098041"/><stop style="stop-color:#6b6b6b;stop-opacity:.1254902" offset=".6"/><stop style="stop-color:#000;stop-opacity:.1254902" offset="1"/></linearGradient></defs><g style="opacity:1;display:inline"><path d="M1.5 1.5v458.869C1.5 626.68 135.814 761.5 301.5 761.5s300-134.82 300-301.131V1.5H1.5z" style="opacity:1;fill:#fff;display:inline"/><path d="M40.823 609.499c51.666 90.796 149.047 152 260.676 152 111.63 0 209.011-61.204 260.677-152H40.823z" style="opacity:1;fill:#2b5df2;display:inline"/></g><g style="opacity:1;display:inline"><path style="fill:#2b5df2" d="M492.782 303.9c0-55.917 24.984-55.917 24.984-111.833 0-55.917-24.984-55.917-24.984-111.834 0-41.99 14.089-52.449 21.106-78.733h-75.511c-7.019 26.284-21.107 36.743-21.107 78.733 0 55.917 24.985 55.917 24.985 111.834 0 55.916-24.985 55.916-24.985 111.833s24.985 55.917 24.985 111.833c0 55.917-24.985 55.917-24.985 111.833 0 43.654 15.228 53.229 21.907 81.934h75.511c-6.68-28.704-21.906-38.279-21.906-81.934 0-55.916 24.984-55.916 24.984-111.833.001-55.916-24.984-55.916-24.984-111.833zM164.62 1.5H89.109c7.018 26.284 21.106 36.743 21.106 78.733 0 55.917-24.984 55.917-24.984 111.834 0 55.916 24.984 55.916 24.984 111.833s-24.983 55.917-24.983 111.833c0 55.917 24.984 55.917 24.984 111.833 0 43.654-15.227 53.229-21.906 81.934h75.511c6.679-28.704 21.907-38.279 21.907-81.934 0-55.916-24.985-55.916-24.985-111.833 0-55.916 24.985-55.916 24.985-111.833s-24.985-55.917-24.985-111.833c0-55.917 24.985-55.917 24.985-111.834 0-41.99-14.09-52.449-21.108-78.733z"/><path style="fill:none;stroke:#000;stroke-width:3" d="M514.689 609.499c-6.68-28.704-21.906-38.279-21.906-81.934 0-55.916 24.984-55.916 24.984-111.833 0-55.916-24.984-55.916-24.984-111.833s24.984-55.917 24.984-111.833c0-55.917-24.984-55.917-24.984-111.834 0-41.99 14.089-52.449 21.106-78.733m-75.511.001c-7.019 26.284-21.107 36.743-21.107 78.733 0 55.917 24.985 55.917 24.985 111.834 0 55.916-24.985 55.916-24.985 111.833s24.985 55.917 24.985 111.833c0 55.917-24.985 55.917-24.985 111.833 0 43.654 15.228 53.229 21.907 81.934m-275.357-.001c6.679-28.704 21.907-38.279 21.907-81.934 0-55.916-24.985-55.916-24.985-111.833 0-55.916 24.985-55.916 24.985-111.833s-24.985-55.917-24.985-111.833c0-55.917 24.985-55.917 24.985-111.834 0-41.99-14.089-52.449-21.107-78.733M89.109 1.5c7.018 26.284 21.106 36.743 21.106 78.733 0 55.917-24.984 55.917-24.984 111.834 0 55.916 24.984 55.916 24.984 111.833s-24.983 55.917-24.983 111.833c0 55.917 24.984 55.917 24.984 111.833 0 43.654-15.227 53.229-21.906 81.934M40.823 609.499h521.353"/><path style="stroke:#000;stroke-width:3" d="M236.425 369.059h130.148v234.49H236.425z"/><path style="stroke:#000;stroke-width:3" transform="translate(-.038 -.045)" d="M356.125 294.887v40.458h-29.516v-40.458h-50.144v40.458h-29.516v-40.458h-31.91v68.265h172.996v-68.265h-31.91z"/><path style="fill:#fff;stroke:#000;stroke-width:3" d="M284.785 385.583h33.429v44.066h-33.429z"/><path style="stroke:#000;stroke-width:2;stroke-linecap:round;stroke-linejoin:round" d="M381.552 226.824c-.32-3.436-4.866-6.77-4.866-13.269 0-6.5-1.315-23.018-3.683-29.246-2.368-6.229-2.105-10.29-2.105-10.29 4.473 1.354 11.312 5.145 11.312 5.145-15.521-24.642-36.302-20.85-41.826-19.226-5.524 1.624-23.375 3.978-30.252.812-11.18-5.145-20.19-6.566-27.293-9.545 0 0-2.115-10.911 0-20.106.592-2.573 10.588-13.54 9.405-25.32 0 0 7.431-1.962 11.443-6.092 4.012-4.129 6.445-5.145 6.445-5.145s-6.313-1.896-11.838-.271c-5.524 1.625-6.313 3.475-8.506 3.475 0 0-1.674-2.665-6.371-4.316-1.182-11.191-1.223-20.777 2.219-25.486 3.59-4.912 8.807-1.252 9.589-1.88.781-.628-1.662-3.848-5.404-4.321-7.311-.924-10.666 7.201-11.477 14.01-.569 4.767.074 12.447.51 16.627a29.29 29.29 0 0 0-3.709-.229c-.345 0-.659.026-.988.04-2.583-11.191-3.848-20.934-.94-26.126 2.981-5.326 8.594-2.347 9.294-3.068.701-.722-2.104-3.611-5.874-3.611-7.366 0-9.733 8.485-9.733 15.346 0 5.544 2.062 14.742 2.852 18.066-6.781 1.755-9.251 6.529-13.462 7.116-5.173.722-14.819.271-16.661 4.243-1.842 3.972-2.455 8.666-.438 9.117 2.017.451 9.251.225 11.574 2.617 2.324 2.393 7.103 8.033 13.855 9.388 0 0-6.708 6.499-15.521 21.934-8.813 15.435-8.33 31.953-8.33 31.953-2.455 1.445-3.333 3.432-4.823 2.799-3.78-1.602-12.012-6.95-15.521-6.95-3.509 0-26.745 27.079-26.745 32.404 0 2.438 5.085 12.909 5.085 12.909-1.14 2.346-.438 8.394-.438 8.394l4.034-6.951c-1.929-.631-1.053-6.499-1.053-6.499-2.63-1.896-2.63-8.666-2.63-8.666 7.892-11.824 18.415-21.934 22.272-24.101 11.575 10.291 14.118 9.478 16.31 9.478 2.191 0 6.4-.632 6.4-.632.526 1.895 5.525 3.249 5.525 3.249-2.806 0-4.297 3.07-6.752 4.424-2.455 1.354-14.118.586-16.222 2.346-13.698 11.458-15.784 29.517-16.967 34.662-1.184 5.145 1.184 11.644 1.184 11.644-1.184 3.25-.658 10.29-.658 10.29l6.182-8.395c-2.302-.203-1.973-4.197-1.973-4.197-1.184-1.218 0-7.311 0-7.311-1.315-10.696 10.917-28.434 14.469-30.6 3.551-2.167 29.068.948 31.173.271 2.104-.677 1.841-4.738 1.841-4.738s9.338 3.113 21.57 3.113c21.835 0 38.144-12.999 48.403-12.999 0 0-2.499 11.239-5.787 23.289s1.929 23.062 1.929 26.402c0 3.339-18.415 20.308-19.159 21.798-2.104 4.063-3.727 12.321-3.727 12.321-3.596 1.986-6.007 7.041-6.007 7.041h8.443c0-5.28 2.737-5.822 2.737-5.822-1.185-4.738 1.774-7.379 1.774-7.379 3.223-8.326 20.586-21.19 23.874-23.22 2.632-1.626-.526-8.667 4.866-16.744 3.684-6.319 6.051-18.054 6.051-18.054 16.31 20.444 27.05 20.651 27.621 23.153 2.499 10.96 5.656 19.362 9.339 26.944-2.762 2.843-7.234 10.02-7.234 10.02-2.039 2.099-4.209 6.905-4.209 6.905h8.418c0-7.988 1.841-5.822 1.841-5.822 2.631-5.958 7.629-8.26 7.629-8.26-5.523-10.831-7.629-31.817-8.286-38.858z"/><path style="fill:#fff" d="M275.111 101.582c0-1.246-1.836-2.256-3.387-2.256s-3.387 1.01-3.387 2.256c0 1.247 1.837 2.256 3.387 2.256s3.387-1.009 3.387-2.256z"/></g><g style="display:inline"><path style="fill:url(#b);fill-opacity:1" d="M1.5 1.5v458.868c0 166.31 134.315 301.132 300 301.132s300-134.821 300-301.132V1.5H1.5z"/></g><g style="display:inline"><path style="fill:none;fill-opacity:1;stroke:#000;stroke-width:3;stroke-miterlimit:4;stroke-dasharray:none;stroke-opacity:1" d="M1.5 1.5v458.868c0 166.31 134.315 301.132 300 301.132s300-134.821 300-301.132V1.5H1.5z"/></g></svg>
